icons/sort-17.svg

<svg width="16" height="17" viewBox="0 0 16 17" fill="none" xmlns="http://www.w3.org/2000/svg">
<path d="M4.52363 6.542L7.82804 3.23762C7.92303 3.14264 8.07703 3.14264 8.17201 3.23762L11.4763 6.542C11.6296 6.69523 11.5211 6.95721 11.3043 6.95721H4.69562C4.47893 6.95721 4.37041 6.69522 4.52363 6.542Z" fill="#272431"/>
<path d="M11.4764 9.79077L8.17194 13.0951C8.07695 13.1901 7.92295 13.1901 7.82797 13.0951L4.52364 9.79077C4.37041 9.63754 4.47889 9.37556 4.69565 9.37556L11.3044 9.37556C11.5211 9.37556 11.6296 9.63755 11.4764 9.79077Z" fill="#272431"/>
</svg>

<svg xmlns="http://www.w3.org/2000/svg" width="16" height="17" viewBox="0 0 16 17"><path d="M4.524 6.542l3.304-3.304a.243.243 0 01.344 0l3.304 3.304a.243.243 0 01-.172.415H4.696a.243.243 0 01-.172-.415zm6.952 3.248l-3.304 3.305a.243.243 0 01-.344 0L4.524 9.791a.243.243 0 01.172-.415h6.608c.217 0 .326.262.172.415z"/></svg>
